X:1
T:Title
%%score 1 ( 2 3 )
L:1/8
Q:1/4=80
M:3/4
K:D
V:1 treble nm="Strings 1, Treble"
V:2 bass nm="Strings 1, Bass"
V:3 bass 
V:1
 z2 z2 [DF]>[EG] | [FA]2 [DG]2 [DF]2 | [DF]2 [CE]2 [CE]>[DF] | [EG]2 [EG]2 [FA]2 | %4
w: 1.~When~ the~|eve ning~ is~|com ing,~ And~ the~|dark~ clouds~ ap|
 [DF]4 [DF]>[EG] | [FA]2 [DG]2 [DF]2 | [DF]2 [CE]2 [CE]>[DF] | [EG]2 [DF]2 [CE]2 | D4 D>[=CD] | %9
w: pear,~ I~ am~|hap py~ in~|know ing~ My~ Re|deem er~ is~|near;~ He~ hath~|
 [B,D]2 [DG]2 [DG]2 | [DG]2 [DF]2 [DF]>[DF] | [CE]2 [DA]2 [EA]2 | [DA]4 [FA]>[FA] | %13
w: blest~ me~ with~|keep ing,~ 'Mid~ the~|toils~ of~ the~|day;~ He~ will~|
 [Fd]2 [FA]2 [GB]2 | [FA]2 [DF]2 D>[DE] | [DF]2 D2 [CE]2 | D4 [FA]>[FA] | [FA]2 [DF]2 [FA]2 | %18
w: watch~ me~ while~|sleep ing,~ He~ will~|not~ go~ a|way.~ * *||
 [EG]4 [EG]>[EG] | [EG]2 [CE]2 [EG]2 | [DF]4 [FA]>[FA] | [Fd]2 [FA]2 [GB]2 | [FA]2 [DF]2 D>[DE] | %23
w: |||||
 [DF]2 D2 [CE]2 | D4 z2 |] %25
w: ||
V:2
 z2 z2 [D,A,]>[D,A,] | [D,D]2 [D,B,]2 [D,A,]2 | [A,,A,]2 [A,,A,]2 [A,,A,]>[A,,A,] | %3
 [A,,A,]2 [A,,A,]2 [A,,A,]2 | [D,A,]4 [D,A,]>[D,A,] | [D,D]2 [D,B,]2 [D,A,]2 | %6
 [A,,A,]2 [A,,A,]2 [A,,A,]>[A,,A,] | [A,,A,]2 [A,,A,]2 [A,,G,]2 | [D,F,]4 [D,F,]>[D,F,] | %9
 [G,,G,]2 [G,,B,]2 [G,,B,]2 | [D,B,]2 [D,A,]2 [D,A,]>[D,A,] | [A,,A,]2 [A,,F,]2 [A,,G,]2 | %12
 [D,F,]4 [D,A,]>[D,A,] | [D,A,]2 [D,D]2 [D,D]2 | [D,D]2 [D,A,]2 [F,A,]>[G,B,] | %15
 A,2 [A,,F,]2 [A,,G,]2 | [D,F,]4 z2 | z2 z2 [D,D]>[D,D] | [A,,C]2 [A,,C]2 [A,,C]2 | %19
 C2 A,2 [C,A,]2 | [D,A,]4 [D,A,]>[D,A,] | [D,A,]2 [D,D]2 [D,D]2 | [D,D]2 [D,A,]2 [F,A,]>[G,B,] | %23
 A,2 [A,,F,]2 [A,,G,]2 | [D,F,]4 z2 |] %25
V:3
 x6 | x6 | x6 | x6 | x6 | x6 | x6 | x6 | x6 | x6 | x6 | x6 | x6 | x6 | x6 | x6 | x6 | x6 | x6 | %19
 A,,4 z2 | x6 | x6 | x6 | x6 | x6 |] %25

